packages/gestalt-icons-android/vr-theme/ic_vr_record-limit-5_gestalt.svg

<svg width="24" height="24" viewBox="0 0 24 24" fill="none" xmlns="http://www.w3.org/2000/svg">
<path d="M11.9423 0.000135899L12 0C15.299 0 18.2888 1.33261 20.457 3.48654C20.48 3.50941 20.503 3.53238 20.5258 3.55543C20.9145 3.94781 20.9114 4.58097 20.5191 4.96963C20.1267 5.35829 19.4935 5.35528 19.1049 4.9629C19.0858 4.94366 19.0667 4.9245 19.0475 4.90542C17.2492 3.11904 14.7788 2.01299 12.0482 2.00011L12 2L11.9518 2.00011C11.3995 2.00272 10.9497 1.55712 10.9471 1.00484C10.9444 0.45256 11.39 0.00273925 11.9423 0.000135899Z" fill="black"/>
<path d="M8.76354 1.43605C8.97264 1.94722 8.72776 2.53111 8.21659 2.74021C8.18708 2.75228 8.15765 2.76448 8.12829 2.77682C7.61916 2.99083 7.03294 2.75158 6.81893 2.24244C6.60492 1.73331 6.84417 1.14708 7.35331 0.933077C7.38858 0.918251 7.42394 0.903588 7.45938 0.88909C7.97055 0.679994 8.55445 0.924874 8.76354 1.43605Z" fill="black"/>
<path d="M4.96963 3.48093C5.35829 3.87331 5.35528 4.50647 4.9629 4.89513C4.9402 4.91761 4.91761 4.9402 4.89512 4.9629C4.50646 5.35528 3.87331 5.35829 3.48093 4.96963C3.08855 4.58097 3.08554 3.94781 3.4742 3.55543C3.50115 3.52823 3.52822 3.50115 3.55543 3.4742C3.94781 3.08554 4.58097 3.08855 4.96963 3.48093Z" fill="black"/>
<path d="M21.7576 6.81893C22.2667 6.60492 22.8529 6.84417 23.0669 7.35331C23.0817 7.38858 23.0964 7.42394 23.1109 7.45938C23.32 7.97055 23.0751 8.55445 22.564 8.76354C22.0528 8.97264 21.4689 8.72776 21.2598 8.21659C21.2477 8.18708 21.2355 8.15765 21.2232 8.12829C21.0092 7.61916 21.2484 7.03294 21.7576 6.81893Z" fill="black"/>
<path d="M2.24244 6.81893C2.75158 7.03294 2.99083 7.61916 2.77682 8.1283C2.76448 8.15766 2.75228 8.18709 2.74021 8.21659C2.53111 8.72776 1.94722 8.97264 1.43605 8.76354C0.924874 8.55445 0.679993 7.97055 0.889089 7.45938C0.903587 7.42394 0.91825 7.38858 0.933076 7.35331C1.14708 6.84417 1.73331 6.60492 2.24244 6.81893Z" fill="black"/>
<path d="M1.00484 10.9471C1.55712 10.9497 2.00272 11.3995 2.00011 11.9518L2 12L2.00011 12.0482C2.00272 12.6005 1.55712 13.0503 1.00484 13.0529C0.45256 13.0556 0.00273925 12.61 0.000135899 12.0577L0 12L0.000135899 11.9423C0.00273925 11.39 0.45256 10.9444 1.00484 10.9471Z" fill="black"/>
<path d="M22.9952 10.9471C23.5474 10.9444 23.9973 11.39 23.9999 11.9423L24 12L23.9999 12.0577C23.9973 12.61 23.5474 13.0556 22.9952 13.0529C22.4429 13.0503 21.9973 12.6005 21.9999 12.0482L22 12L21.9999 11.9518C21.9973 11.3995 22.4429 10.9497 22.9952 10.9471Z" fill="black"/>
<path d="M22.564 15.2365C23.0751 15.4456 23.32 16.0294 23.1109 16.5406L23.0844 16.6049L23.0669 16.6467C22.8529 17.1558 22.2667 17.3951 21.7576 17.1811C21.2484 16.9671 21.0092 16.3808 21.2232 15.8717L21.2412 15.8285L21.2598 15.7834C21.4689 15.2722 22.0528 15.0274 22.564 15.2365Z" fill="black"/>
<path d="M1.43605 15.2365C1.94722 15.0274 2.53111 15.2722 2.74021 15.7834C2.75228 15.8129 2.76448 15.8423 2.77682 15.8717C2.99083 16.3808 2.75158 16.9671 2.24244 17.1811C1.73331 17.3951 1.14708 17.1558 0.933077 16.6467C0.918251 16.6114 0.903588 16.5761 0.88909 16.5406C0.679994 16.0294 0.924874 15.4456 1.43605 15.2365Z" fill="black"/>
<path d="M20.5191 19.0304C20.9115 19.419 20.9145 20.0522 20.5258 20.4446C20.4989 20.4718 20.4718 20.4989 20.4446 20.5258C20.0522 20.9145 19.419 20.9114 19.0304 20.5191C18.6417 20.1267 18.6447 19.4935 19.0371 19.1049L19.0619 19.0802L19.1049 19.0371C19.4935 18.6447 20.1267 18.6417 20.5191 19.0304Z" fill="black"/>
<path d="M3.48093 19.0304C3.87331 18.6417 4.50647 18.6447 4.89513 19.0371C4.91761 19.0598 4.9402 19.0824 4.9629 19.1049C5.35528 19.4935 5.35829 20.1267 4.96963 20.5191C4.58097 20.9115 3.94781 20.9145 3.55543 20.5258C3.52823 20.4989 3.50115 20.4718 3.4742 20.4446C3.08554 20.0522 3.08855 19.419 3.48093 19.0304Z" fill="black"/>
<path d="M6.81893 21.7576C7.03294 21.2484 7.61916 21.0092 8.1283 21.2232C8.15766 21.2355 8.18709 21.2477 8.21659 21.2598C8.72776 21.4689 8.97264 22.0528 8.76354 22.564C8.55445 23.0751 7.97055 23.32 7.45938 23.1109C7.42394 23.0964 7.38858 23.0818 7.35331 23.0669C6.84417 22.8529 6.60492 22.2667 6.81893 21.7576Z" fill="black"/>
<path d="M17.1811 21.7576C17.3951 22.2667 17.1558 22.8529 16.6467 23.0669C16.6114 23.0817 16.5761 23.0964 16.5406 23.1109C16.0294 23.32 15.4456 23.0751 15.2365 22.564C15.0274 22.0528 15.2722 21.4689 15.7834 21.2598C15.8129 21.2477 15.8423 21.2355 15.8717 21.2232C16.3808 21.0092 16.9671 21.2484 17.1811 21.7576Z" fill="black"/>
<path d="M10.9471 22.9952C10.9497 22.4429 11.3995 21.9973 11.9518 21.9999L12 22L12.0482 21.9999C12.6005 21.9973 13.0503 22.4429 13.0529 22.9952C13.0556 23.5474 12.61 23.9973 12.0577 23.9999L12 24L11.9423 23.9999C11.39 23.9973 10.9444 23.5474 10.9471 22.9952Z" fill="black"/>
<path d="M12.3562 10.918C13.7862 10.918 14.8092 11.875 14.8092 13.437C14.8092 15.087 13.5992 16.154 11.8722 16.154C10.4752 16.154 9.37517 15.472 9.06717 14.416L10.5082 13.767C10.7062 14.394 11.1572 14.724 11.8282 14.724C12.6532 14.724 13.1482 14.24 13.1482 13.448C13.1482 12.645 12.6972 12.183 11.9162 12.183C11.3222 12.183 10.8932 12.469 10.6842 12.854L9.38617 12.337L10.1122 8.245H14.3582V9.73H11.3112L10.9812 11.369C11.2782 11.072 11.7732 10.918 12.3562 10.918Z" fill="black"/>
</svg>

<svg xmlns="http://www.w3.org/2000/svg" width="24" height="24"><path d="M11.94 0H12a12 12 0 0 1 8.53 3.56 1 1 0 1 1-1.48 1.35 10 10 0 0 0-7-2.91h-.1a1 1 0 0 1 0-2M8.76 1.44a1 1 0 0 1-.54 1.3l-.1.04A1 1 0 1 1 7.36.93l.1-.04a1 1 0 0 1 1.31.55m-3.8 2.04a1 1 0 0 1 0 1.42l-.07.06a1 1 0 1 1-1.43-1.4l.09-.09a1 1 0 0 1 1.41.01m16.79 3.34a1 1 0 0 1 1.3.53l.05.1a1 1 0 1 1-1.89.68 1 1 0 0 1 .54-1.31m-19.52 0a1 1 0 0 1 .54 1.3l-.04.1a1 1 0 0 1-1.85-.76l.04-.1a1 1 0 0 1 1.31-.54M1 10.95a1 1 0 0 1 1 1v.1a1 1 0 0 1-2 0v-.11a1 1 0 0 1 1-1m22 0a1 1 0 0 1 1 1v.11a1 1 0 1 1-2-.01v-.1a1 1 0 0 1 1-1m-.44 4.29c.52.2.76.79.55 1.3l-.03.06-.01.05a1 1 0 1 1-1.85-.78l.02-.04.02-.05a1 1 0 0 1 1.3-.54m-21.12 0a1 1 0 0 1 1.3.54l.04.1a1 1 0 0 1-1.85.77l-.04-.1a1 1 0 0 1 .55-1.31m19.08 3.79a1 1 0 0 1 0 1.41l-.08.09a1 1 0 0 1-1.4-1.43l.02-.02.04-.04a1 1 0 0 1 1.42-.01m-17.04 0a1 1 0 0 1 1.42 0l.06.07a1 1 0 1 1-1.4 1.43l-.09-.09a1 1 0 0 1 .01-1.41m3.34 2.73a1 1 0 0 1 1.3-.54l.1.04a1 1 0 0 1-.76 1.85l-.1-.04a1 1 0 0 1-.54-1.31m10.36 0a1 1 0 0 1-.53 1.3l-.1.05a1 1 0 1 1-.77-1.85l.1-.04a1 1 0 0 1 1.3.54M10.95 23a1 1 0 0 1 1-1h.1a1 1 0 0 1 0 2h-.11a1 1 0 0 1-1-1m1.4-12.08c1.44 0 2.46.95 2.46 2.52 0 1.65-1.21 2.71-2.94 2.71-1.4 0-2.5-.68-2.8-1.73l1.44-.65q.3.94 1.32.95c.82 0 1.32-.48 1.32-1.27 0-.8-.45-1.27-1.23-1.27-.6 0-1.03.29-1.24.67l-1.3-.51.73-4.1h4.25v1.49H11.3l-.33 1.64c.3-.3.8-.45 1.38-.45"/></svg>
